svg/m/MO.svg

<svg width="20" height="15" viewBox="0 0 20 15" fill="none" xmlns="http://www.w3.org/2000/svg">
<mask id="mask0" mask-type="alpha" maskUnits="userSpaceOnUse" x="0" y="0" width="20" height="15">
<rect width="20" height="15" fill="white"/>
</mask>
<g mask="url(#mask0)">
<path fill-rule="evenodd" clip-rule="evenodd" d="M0 0V15H20V0H0Z" fill="#1C9975"/>
<mask id="mask1" mask-type="alpha" maskUnits="userSpaceOnUse" x="0" y="0" width="20" height="15">
<path fill-rule="evenodd" clip-rule="evenodd" d="M0 0V15H20V0H0Z" fill="white"/>
</mask>
<g mask="url(#mask1)">
<path fill-rule="evenodd" clip-rule="evenodd" d="M10.0135 4.28358L8.9924 4.9L9.22531 3.69712L8.375 2.79687L9.52636 2.7482L10.0135 1.625L10.5006 2.7482H11.65L10.8017 3.69712L11.0571 4.9L10.0135 4.28358Z" fill="#FECA00"/>
<path fill-rule="evenodd" clip-rule="evenodd" d="M7.11412 4.74029L6.48277 5.12144L6.62677 4.37767L6.10101 3.82103L6.81292 3.79093L7.11412 3.09644L7.41531 3.79093H8.12601L7.60146 4.37767L7.75938 5.12144L7.11412 4.74029Z" fill="#FECA00"/>
<path fill-rule="evenodd" clip-rule="evenodd" d="M12.8631 4.74029L12.2318 5.12144L12.3758 4.37767L11.85 3.82103L12.5619 3.79093L12.8631 3.09644L13.1643 3.79093H13.875L13.3505 4.37767L13.5084 5.12144L12.8631 4.74029Z" fill="#FECA00"/>
<path fill-rule="evenodd" clip-rule="evenodd" d="M5.47906 6.00664L4.97242 6.3125L5.08798 5.71565L4.66608 5.26896L5.23736 5.24481L5.47906 4.6875L5.72076 5.24481H6.29108L5.87014 5.71565L5.99687 6.3125L5.47906 6.00664Z" fill="#FECA00"/>
<path fill-rule="evenodd" clip-rule="evenodd" d="M14.7255 6.00664L14.2189 6.3125L14.3344 5.71565L13.9125 5.26896L14.4838 5.24481L14.7255 4.6875L14.9672 5.24481H15.5375L15.1166 5.71565L15.2433 6.3125L14.7255 6.00664Z" fill="#FECA00"/>
<mask id="mask2" mask-type="alpha" maskUnits="userSpaceOnUse" x="5" y="3" width="10" height="11">
<path fill-rule="evenodd" clip-rule="evenodd" d="M10 13.75C12.7614 13.75 15 11.5114 15 8.75C15 5.98858 12.7614 3.75 10 3.75C7.23858 3.75 5 5.98858 5 8.75C5 11.5114 7.23858 13.75 10 13.75Z" fill="white"/>
</mask>
<g mask="url(#mask2)">
<path fill-rule="evenodd" clip-rule="evenodd" d="M7.92554 13.1649H12.0745V13.8351H7.92554V13.1649Z" fill="#F7FCFF"/>
<path fill-rule="evenodd" clip-rule="evenodd" d="M6.22339 12.1625H14.2021V12.7768H6.22339V12.1625Z" fill="#F7FCFF"/>
<path d="M7.88765 11.8879H5.4472V11.2629L7.88325 11.2629C8.7462 11.2508 9.37677 11.0043 9.7975 10.5301L10.0071 10.2938L10.2412 10.506C10.8031 11.0155 11.3643 11.2629 11.9321 11.2629H14.6223V11.8879H11.9321C11.2798 11.8879 10.6501 11.6425 10.0479 11.162C9.51461 11.6347 8.79048 11.8752 7.88765 11.8879Z" fill="#F7FCFF"/>
</g>
<path fill-rule="evenodd" clip-rule="evenodd" d="M10.0217 4.75488C10.0217 4.75488 8.95371 5.80988 8.95371 7.25775C8.95371 7.56759 9.00262 7.8603 9.0795 8.12903C8.73543 7.36645 8.71159 6.53954 9.00854 5.63754L8.60435 5.50447C8.30226 6.42206 8.30096 7.28477 8.60087 8.08429C7.98048 7.7105 7.26671 7.45935 6.53409 7.37837L6.48734 7.80132C7.1276 7.8721 7.75252 8.08559 8.30118 8.40162C8.16572 8.347 8.02368 8.29949 7.8755 8.26167C6.52366 7.91665 5.19739 8.40587 5.19739 8.40587C5.19739 8.40587 5.96244 10.1223 7.44425 10.3754C7.51813 10.388 7.59116 10.3978 7.66325 10.4051L7.65206 10.4051C6.94556 10.4051 6.28855 10.1163 5.67332 9.52942L5.37961 9.83734C6.07065 10.4965 6.83071 10.8306 7.65206 10.8306C8.45534 10.8306 9.20136 10.511 9.88304 9.88038C9.99238 9.81434 10.0564 9.76709 10.0666 9.75941L10.0934 9.78222C10.0794 9.80636 10.0723 9.81952 10.0723 9.81952C10.0723 9.81952 10.1395 9.86021 10.2607 9.91752C10.9338 10.4392 11.7759 10.8306 12.4422 10.8306C13.2635 10.8306 14.0236 10.4965 14.7146 9.83734L14.4209 9.52942C13.8057 10.1163 13.1487 10.4051 12.4422 10.4051C12.1841 10.4051 11.9311 10.3637 11.6831 10.2802C12.0305 10.2989 12.4132 10.2676 12.8093 10.1465C14.269 9.70023 14.8775 8.35045 14.8775 8.35045C14.8775 8.35045 14.1008 7.93139 13.1144 7.92668C13.3354 7.86968 13.566 7.8279 13.8065 7.80132L13.7597 7.37837C12.8346 7.48063 12.0342 7.79289 11.3628 8.31394C11.7554 7.45072 11.7857 6.51059 11.4545 5.50447L11.0503 5.63754C11.321 6.45969 11.3251 7.21946 11.0632 7.92499C11.1081 7.71637 11.1346 7.49338 11.1346 7.25775C11.1346 5.7314 10.0217 4.75488 10.0217 4.75488ZM10.4915 9.22215L10.4757 9.24497L10.495 9.22194L10.4915 9.22215ZM9.45928 9.12248L9.5011 9.08401C9.53914 9.14719 9.57708 9.20667 9.61416 9.26219C9.56607 9.2169 9.5144 9.17009 9.45928 9.12248Z" fill="#F7FCFF"/>
</g>
</g>
</svg>

<svg width="20" height="15" fill="none" xmlns="http://www.w3.org/2000/svg">
  <mask id="a" maskUnits="userSpaceOnUse" x="0" y="0" width="20" height="15">
    <path fill="#fff" d="M0 0h20v15H0z"/>
  </mask>
  <g mask="url(#a)">
    <path fill-rule="evenodd" clip-rule="evenodd" d="M0 0v15h20V0H0z" fill="#1C9975"/>
    <mask id="b" maskUnits="userSpaceOnUse" x="0" y="0" width="20" height="15">
      <path fill-rule="evenodd" clip-rule="evenodd" d="M0 0v15h20V0H0z" fill="#fff"/>
    </mask>
    <g mask="url(#b)">
      <path fill-rule="evenodd" clip-rule="evenodd" d="M10.014 4.284L8.992 4.9l.233-1.203-.85-.9 1.151-.049.488-1.123.487 1.123h1.149l-.848.95.255 1.202-1.043-.616zm-2.9.456l-.631.381.144-.743L6.1 3.82l.712-.03.301-.695.301.695h.711l-.525.587.158.743-.645-.38zm5.749 0l-.631.381.144-.743-.526-.557.712-.03.301-.695.301.695h.711l-.524.587.157.743-.645-.38zM5.48 6.007l-.508.306.116-.597-.422-.447.571-.024.242-.558.242.558h.57l-.42.47.126.598-.518-.306zm9.246 0l-.507.306.115-.597-.421-.447.57-.024.242-.558.242.558h.57l-.42.47.126.598-.518-.306z" fill="#FECA00"/>
      <mask id="c" maskUnits="userSpaceOnUse" x="5" y="3" width="10" height="11">
        <path fill-rule="evenodd" clip-rule="evenodd" d="M10 13.75a5 5 0 100-10 5 5 0 000 10z" fill="#fff"/>
      </mask>
      <g mask="url(#c)" fill="#F7FCFF">
        <path fill-rule="evenodd" clip-rule="evenodd" d="M7.926 13.165h4.149v.67h-4.15v-.67zm-1.703-1.003h7.98v.615h-7.98v-.614z"/>
        <path d="M7.888 11.888h-2.44v-.625h2.435c.863-.012 1.494-.259 1.915-.733l.21-.236.233.212c.562.51 1.123.757 1.691.757h2.69v.625h-2.69c-.652 0-1.282-.245-1.884-.726-.533.473-1.258.713-2.16.726z"/>
      </g>
      <path fill-rule="evenodd" clip-rule="evenodd" d="M10.022 4.755S8.954 5.81 8.954 7.258c0 .31.049.602.125.871-.344-.763-.367-1.59-.07-2.491l-.405-.134c-.302.918-.303 1.78-.003 2.58a5.133 5.133 0 00-2.067-.706l-.047.423a4.7 4.7 0 011.814.6 3.36 3.36 0 00-.426-.14c-1.351-.344-2.678.145-2.678.145s.765 1.716 2.247 1.97c.074.012.147.022.22.03h-.012c-.706 0-1.363-.29-1.979-.877l-.293.308c.69.66 1.45.994 2.272.994.803 0 1.55-.32 2.231-.95a2.34 2.34 0 00.184-.122l.026.023c-.014.024-.02.038-.02.038s.066.04.188.098c.673.521 1.515.913 2.181.913.822 0 1.582-.335 2.273-.994l-.294-.308c-.615.587-1.272.876-1.979.876-.258 0-.51-.041-.759-.125a3.24 3.24 0 001.126-.133c1.46-.447 2.069-1.797 2.069-1.797s-.777-.419-1.764-.423c.221-.057.452-.1.692-.126l-.046-.423c-.925.103-1.726.415-2.397.936.392-.863.423-1.803.091-2.81l-.404.134c.271.822.275 1.581.013 2.287.045-.209.072-.432.072-.667 0-1.527-1.113-2.503-1.113-2.503zm.47 4.467l-.016.023.019-.023h-.003zm-1.033-.1l.042-.038c.038.063.076.123.113.178a4.854 4.854 0 00-.155-.14z" fill="#F7FCFF"/>
    </g>
  </g>
</svg>
